static/images/cian.svg

<?xml version="1.0" encoding="utf-8"?>
<svg viewBox="0 0 110 40" fill="none">
<g>
    <path fill-rule="evenodd" clip-rule="evenodd" d="M19.4992 9.13016C17.9529 9.13016 16.6996 7.86552 16.6996 6.30577C16.6996 4.74552 17.9529 3.48113 19.4992 3.48113C21.0454 3.48113 22.299 4.74552 22.299 6.30577C22.299 7.86552 21.0454 9.13016 19.4992 9.13016ZM19.4992 0.159668C16.1269 0.159668 13.3933 2.91747 13.3933 6.31991C13.3933 7.48016 13.7119 8.56577 14.2653 9.49211C14.3782 9.68162 14.501 9.8643 14.633 10.0397L15.0385 10.607L19.4992 16.0338L24.366 10.0389C25.1432 9.00528 25.605 7.71698 25.605 6.31991C25.605 2.91747 22.8714 0.159668 19.4992 0.159668Z" fill="#0468FF"></path>
    <path fill-rule="evenodd" clip-rule="evenodd" d="M21.8303 28.7803V18.4428H17.3072V23.2981L12.7869 17.8193L0.199951 33.0749L4.38696 36.5908L12.7869 26.4101L21.1865 36.5908L25.3735 33.0749L21.8303 28.7803Z" fill="#0468FF"></path>
    <path fill-rule="evenodd" clip-rule="evenodd" d="M49.5699 18.4287H45.5586V32.5192H37.6309V18.4287H33.6199V36.2616H48.3899V39.8404H52.0237V32.5192H49.5699V18.4287Z" fill="#152242"></path>
    <path fill-rule="evenodd" clip-rule="evenodd" d="M58.8404 30.4346V18.4287H54.8293V36.2619H58.8404L67.2403 24.2558V36.2619H71.2513V18.4287H67.2403L58.8404 30.4346Z" fill="#152242"></path>
    <path fill-rule="evenodd" clip-rule="evenodd" d="M105.813 18.4287V25.436H97.6253V18.4287H93.6138V36.2616H97.6253V29.2038H105.813V36.2616H109.8V18.4287H105.813Z" fill="#152242"></path>
    <path fill-rule="evenodd" clip-rule="evenodd" d="M85.7394 28.732C85.7394 30.1318 85.347 31.2272 84.5729 31.9879C83.7893 32.7574 82.6514 33.1479 81.1907 33.1479C79.364 33.1479 78.3578 32.3174 78.3578 30.8094C78.3578 29.2364 79.6736 28.2974 81.877 28.2974H85.7394V28.732ZM82.392 18.0886C80.2962 18.0886 78.491 18.6545 77.1705 19.725C75.9363 20.7257 75.205 22.124 75.1061 23.6647H79.0596C79.2407 22.8374 80.117 21.5467 82.392 21.5467C84.488 21.5467 85.7394 22.8094 85.7394 24.924V25.0125H81.7054C79.3168 25.0125 77.4715 25.5574 76.2213 26.632C75.0232 27.6616 74.4156 29.1252 74.4156 30.9823C74.4156 32.5833 75.0404 34.0198 76.1752 35.0272C77.3385 36.0601 78.9544 36.6059 80.8479 36.6059C83.814 36.6059 85.4275 35.1457 85.9831 34.5203L86.2582 36.0481L86.2964 36.2596H86.5096H89.4262H89.682V36.002V24.924C89.682 20.7079 86.8884 18.0886 82.392 18.0886Z" fill="#152242"></path>
</g>
</svg>

<svg xmlns="http://www.w3.org/2000/svg" width="110" height="40" fill="none"><path fill-rule="evenodd" clip-rule="evenodd" d="M19.5 9.13c-1.547 0-2.8-1.264-2.8-2.824 0-1.56 1.253-2.825 2.8-2.825 1.545 0 2.799 1.265 2.799 2.825 0 1.56-1.254 2.824-2.8 2.824zm0-8.97c-3.373 0-6.107 2.757-6.107 6.16a6.167 6.167 0 001.24 3.72l.406.567 4.46 5.427 4.867-5.995a6.168 6.168 0 001.239-3.72c0-3.402-2.734-6.16-6.106-6.16zM21.83 28.78V18.443h-4.523v4.855l-4.52-5.479L.2 33.075l4.187 3.516 8.4-10.18 8.4 10.18 4.186-3.516-3.543-4.295z" fill="#0468FF"/><path fill-rule="evenodd" clip-rule="evenodd" d="M49.57 18.429h-4.011v14.09H37.63V18.43H33.62v17.833h14.77v3.578h3.634v-7.32H49.57V18.428zM58.84 30.435V18.429h-4.01v17.833h4.01l8.4-12.006v12.006h4.011V18.429h-4.01l-8.4 12.006zM105.813 18.429v7.007h-8.188v-7.007h-4.011v17.833h4.011v-7.058h8.188v7.058h3.987V18.429h-3.987zM85.74 28.732c0 1.4-.393 2.495-1.167 3.256-.784.77-1.922 1.16-3.382 1.16-1.827 0-2.833-.83-2.833-2.339 0-1.573 1.316-2.512 3.519-2.512h3.862v.435zm-3.348-10.643c-2.096 0-3.901.566-5.221 1.636-1.235 1-1.966 2.399-2.065 3.94h3.954c.18-.828 1.057-2.118 3.332-2.118 2.096 0 3.347 1.262 3.347 3.377v.088h-4.034c-2.388 0-4.233.545-5.484 1.62-1.198 1.03-1.805 2.493-1.805 4.35 0 1.601.624 3.038 1.76 4.045 1.162 1.033 2.778 1.579 4.672 1.579 2.966 0 4.58-1.46 5.135-2.086l.275 1.528.038.212h3.386V24.924c0-4.216-2.794-6.835-7.29-6.835z" fill="#152242"/></svg>
